public/img/old-svg/driver.svg

<svg width="82" height="98" viewBox="0 0 82 98" fill="none" xmlns="http://www.w3.org/2000/svg">
<path d="M30.8362 52.8612C22.9933 43.8112 20.8291 33.173 19.3309 22.2761C19.1076 21.1072 18.6135 20.0066 17.8881 19.0625C13.9296 13.5217 14.3181 8.92285 20.3112 5.61686C24.9431 3.17435 29.9403 1.49658 35.1091 0.64863C43.6747 -0.898069 52.5113 0.338331 60.3211 4.17625C67.3501 7.57459 70.1802 13.928 64.483 19.6535C63.1512 20.9833 63.4287 23.9383 63.0217 26.1547C61.3015 35.7217 59.0818 45.0856 51.9233 52.8242C58.3604 55.373 64.1501 57.774 70.0322 59.9349C74.7491 61.671 78.2451 64.8662 79.0775 69.6312C80.5388 78.0532 81.2787 86.6229 82.0001 95.1557C82.0001 96.0053 79.9838 97.8522 78.8925 97.8522C53.9395 98 28.9495 97.9446 4.015 98C1.40687 98 0.31552 96.9103 0.518991 94.417C1.33288 86.6414 1.8878 78.8289 3.18262 71.1273C3.60967 68.4422 4.79569 65.9347 6.6012 63.8996C8.40672 61.8645 10.7567 60.3865 13.3747 59.6394C19.0349 57.7001 24.5471 55.336 30.8362 52.8612ZM3.2751 94.1769H79.6139C78.5226 86.4383 77.7642 79.1244 76.3029 72.0138C75.7363 69.1741 74.1593 66.6351 71.8635 64.8662C67.5278 62.4719 63.0133 60.4157 58.3604 58.7159L42.1567 91.9605L40.5289 91.7759L23.8812 59.1407L16.0383 62.0958C11.4325 63.9427 7.21505 66.196 6.34567 71.6075C5.19883 78.9397 4.32945 86.3459 3.2751 94.1769ZM41.3798 24.2523C47.8169 22.2946 54.18 21.0017 59.8772 18.416C65.5744 15.8303 65.4264 11.4716 60.1916 7.90704C51.6828 2.07076 31.1507 2.07076 22.4754 7.90704C17.3146 11.3608 17.1297 15.9042 22.7714 18.4345C28.4131 20.9648 34.9612 22.2946 41.3798 24.2523ZM25.0465 34.5212C26.7298 41.2071 29.153 47.2096 34.5912 51.476C36.5291 53.0541 38.9531 53.9159 41.4538 53.9159C43.9544 53.9159 46.3784 53.0541 48.3163 51.476C53.7545 47.1911 55.9372 41.0963 57.787 34.6505C46.9869 36.911 35.831 36.8732 25.0465 34.5397V34.5212ZM22.9194 22.7563C23.3448 28.648 26.6188 32.2864 32.1681 32.5265C38.3092 32.7851 44.4873 32.7851 50.6655 32.5265C56.2147 32.3049 59.3962 28.8327 60.0251 22.6455C48.1239 27.4089 34.8489 27.4485 22.9194 22.7563ZM55.5673 56.7951H44.6168C42.3416 56.7951 39.8445 57.3307 37.8468 56.5735C33.8698 55.0405 30.8177 56.5735 27.2107 58.4204L34.6097 73.0296L36.0525 72.808C36.145 70.961 36.3855 69.1141 36.3115 67.3965C36.1265 60.5998 36.3855 60.2489 41.5277 60.2489C46.67 60.2489 46.7995 60.8029 46.4111 67.5257C46.394 69.1043 46.4619 70.6826 46.6145 72.2539L47.9648 72.3647L55.5673 56.7951ZM41.3243 70.2038C36.219 77.4622 36.3115 79.7709 41.6387 84.8499C46.4111 77.2036 46.4111 76.6865 41.3243 70.2038Z" fill="white" fill-opacity="0.4"/>
<path d="M57.7422 65.8816C61.1988 64.5798 64.9286 64.5224 68.4155 65.7172V67.7722H57.7968L57.7422 65.8816Z" fill="white" fill-opacity="0.4"/>
</svg>

<svg width="82" height="98" viewBox="0 0 82 98" fill="none" xmlns="http://www.w3.org/2000/svg"><path d="M30.836 52.861c-7.843-9.05-10.007-19.688-11.505-30.585a7.622 7.622 0 00-1.443-3.213c-3.958-5.541-3.57-10.14 2.423-13.446A48.588 48.588 0 0135.11.649a40.75 40.75 0 0125.212 3.527c7.03 3.399 9.86 9.752 4.162 15.478-1.332 1.33-1.054 4.284-1.461 6.5-1.72 9.568-3.94 18.932-11.099 26.67 6.437 2.549 12.227 4.95 18.11 7.11 4.716 1.737 8.212 4.932 9.044 9.697C80.54 78.053 81.28 86.623 82 95.156c0 .85-2.016 2.696-3.108 2.696C53.94 98 28.95 97.945 4.016 98c-2.608 0-3.7-1.09-3.496-3.583.814-7.776 1.369-15.588 2.664-23.29A14.268 14.268 0 016.6 63.9a14.3 14.3 0 016.774-4.26c5.66-1.94 11.172-4.304 17.461-6.779zM3.276 94.177h76.338c-1.091-7.739-1.85-15.053-3.311-22.163a11.984 11.984 0 00-4.44-7.148 96.26 96.26 0 00-13.503-6.15L42.157 91.96l-1.628-.184L23.88 59.14l-7.843 2.955c-4.606 1.847-8.823 4.1-9.692 9.512-1.147 7.332-2.017 14.738-3.07 22.569zM41.38 24.252c6.437-1.957 12.8-3.25 18.497-5.836 5.697-2.586 5.55-6.944.315-10.509-8.51-5.836-29.041-5.836-37.717 0-5.16 3.454-5.345 7.997.296 10.527 5.642 2.53 12.19 3.86 18.609 5.818zm-16.334 10.27c1.684 6.685 4.107 12.688 9.545 16.954a10.868 10.868 0 0013.725 0c5.438-4.285 7.621-10.38 9.471-16.825a78.64 78.64 0 01-32.74-.111v-.019zM22.92 22.755c.426 5.892 3.7 9.53 9.25 9.77 6.14.26 12.318.26 18.497 0 5.549-.221 8.73-3.693 9.36-9.88a50.31 50.31 0 01-37.107.11zm32.648 34.04h-10.95c-2.275 0-4.773.535-6.77-.222-3.977-1.533-7.03 0-10.636 1.846l7.399 14.61 1.443-.222c.092-1.847.333-3.694.259-5.412-.185-6.796.074-7.147 5.216-7.147s5.272.554 4.883 7.277c-.017 1.578.05 3.157.203 4.728l1.35.11 7.603-15.569zM41.324 70.203c-5.105 7.258-5.012 9.567.315 14.646 4.772-7.646 4.772-8.163-.315-14.646z" fill="#fff" fill-opacity=".4"/><path d="M57.742 65.882a15.68 15.68 0 0110.673-.165v2.055H57.797l-.055-1.89z" fill="#fff" fill-opacity=".4"/></svg>
